icons/np.svg

<?xml version="1.0" ?>
<svg xmlns="http://www.w3.org/2000/svg" xmlns:ev="http://www.w3.org/2001/xml-events" xmlns:xlink="http://www.w3.org/1999/xlink" baseProfile="full" height="286px" version="1.1" viewBox="-1028.9320448459093 2192.0007773225025 12296.744228440963 5858.671834947195" width="600px">
	<defs/>
	<path d="M 1760.0,7545.0 C 1741.0,7538.0 1702.0,7531.0 1673.0,7531.0 C 1624.0,7530.0 1619.0,7528.0 1595.0,7493.0 C 1574.0,7462.0 1570.0,7444.0 1570.0,7387.0 C 1570.0,7325.0 1567.0,7315.0 1538.0,7279.0 C 1516.0,7251.0 1499.0,7240.0 1480.0,7240.0 C 1465.0,7240.0 1445.0,7231.0 1436.0,7221.0 C 1421.0,7205.0 1420.0,7196.0 1430.0,7160.0 C 1440.0,7122.0 1439.0,7115.0 1422.0,7098.0 C 1404.0,7079.0 1401.0,7079.0 1372.0,7094.0 C 1355.0,7103.0 1318.0,7135.0 1289.0,7165.0 C 1242.0,7215.0 1072.0,7350.0 1056.0,7350.0 C 1053.0,7350.0 1050.0,7338.0 1050.0,7323.0 C 1050.0,7286.0 1040.0,7273.0 997.0,7247.0 C 977.0,7235.0 945.0,7203.0 926.0,7175.0 C 907.0,7148.0 871.0,7113.0 848.0,7099.0 C 812.0,7078.0 804.0,7068.0 802.0,7039.0 C 800.0,7019.0 787.0,6993.0 771.0,6975.0 C 756.0,6959.0 739.0,6933.0 732.0,6918.0 C 726.0,6903.0 703.0,6880.0 682.0,6866.0 C 655.0,6849.0 628.0,6816.0 595.0,6760.0 C 545.0,6674.0 501.0,6640.0 442.0,6640.0 C 418.0,6640.0 410.0,6632.0 388.0,6586.0 L 361.0,6532.0 L 389.0,6495.0 L 417.0,6457.0 L 393.0,6414.0 C 380.0,6390.0 354.0,6362.0 335.0,6350.0 C 307.0,6333.0 301.0,6322.0 295.0,6279.0 C 289.0,6234.0 285.0,6229.0 259.0,6223.0 C 237.0,6219.0 230.0,6212.0 230.0,6194.0 C 230.0,6180.0 220.0,6164.0 205.0,6154.0 C 177.0,6135.0 173.0,6113.0 195.0,6084.0 C 203.0,6074.0 210.0,6053.0 210.0,6038.0 C 210.0,6023.0 219.0,5996.0 230.0,5978.0 C 242.0,5957.0 250.0,5927.0 250.0,5898.0 C 250.0,5872.0 254.0,5840.0 260.0,5826.0 C 272.0,5793.0 258.0,5785.0 220.0,5805.0 C 204.0,5813.0 190.0,5818.0 190.0,5815.0 C 190.0,5811.0 206.0,5788.0 225.0,5763.0 C 244.0,5738.0 260.0,5714.0 260.0,5709.0 C 260.0,5705.0 240.0,5685.0 216.0,5665.0 C 186.0,5641.0 169.0,5618.0 165.0,5597.0 C 148.0,5512.0 139.0,5493.0 116.0,5482.0 C 102.0,5476.0 71.0,5445.0 45.0,5413.0 C -6.0,5347.0 -13.0,5310.0 21.0,5274.0 C 39.0,5255.0 50.0,5252.0 84.0,5256.0 C 120.0,5261.0 128.0,5258.0 154.0,5231.0 C 175.0,5210.0 193.0,5200.0 214.0,5200.0 C 238.0,5200.0 249.0,5193.0 261.0,5171.0 C 277.0,5143.0 388.0,5060.0 409.0,5060.0 C 422.0,5060.0 524.0,4996.0 563.0,4963.0 C 579.0,4951.0 598.0,4940.0 606.0,4940.0 C 619.0,4940.0 619.0,4967.0 606.0,5064.0 C 606.0,5069.0 625.0,5080.0 651.0,5088.0 C 695.0,5102.0 697.0,5102.0 751.0,5070.0 C 780.0,5052.0 816.0,5025.0 830.0,5010.0 C 844.0,4996.0 875.0,4976.0 900.0,4966.0 C 925.0,4956.0 966.0,4935.0 992.0,4918.0 C 1031.0,4893.0 1048.0,4889.0 1091.0,4891.0 C 1137.0,4894.0 1145.0,4891.0 1165.0,4866.0 C 1186.0,4840.0 1189.0,4839.0 1237.0,4848.0 C 1300.0,4859.0 1340.0,4842.0 1340.0,4805.0 C 1340.0,4791.0 1345.0,4780.0 1352.0,4780.0 C 1358.0,4780.0 1397.0,4763.0 1438.0,4743.0 C 1501.0,4712.0 1515.0,4701.0 1530.0,4666.0 C 1540.0,4643.0 1575.0,4582.0 1608.0,4530.0 C 1668.0,4433.0 1693.0,4414.0 1725.0,4440.0 C 1735.0,4449.0 1751.0,4447.0 1791.0,4433.0 C 1831.0,4419.0 1846.0,4408.0 1856.0,4385.0 C 1866.0,4361.0 1890.0,4344.0 1982.0,4298.0 C 2044.0,4267.0 2117.0,4234.0 2144.0,4225.0 C 2178.0,4213.0 2198.0,4198.0 2211.0,4175.0 C 2224.0,4154.0 2243.0,4139.0 2269.0,4131.0 C 2290.0,4125.0 2311.0,4113.0 2314.0,4105.0 C 2317.0,4096.0 2332.0,4090.0 2349.0,4090.0 C 2373.0,4090.0 2385.0,4099.0 2411.0,4135.0 L 2443.0,4180.0 L 2520.0,4180.0 C 2589.0,4180.0 2599.0,4177.0 2620.0,4155.0 C 2638.0,4135.0 2653.0,4130.0 2690.0,4130.0 C 2730.0,4130.0 2741.0,4125.0 2770.0,4095.0 C 2789.0,4075.0 2814.0,4060.0 2827.0,4060.0 C 2839.0,4060.0 2900.0,4027.0 2961.0,3987.0 L 3072.0,3913.0 L 3217.0,3957.0 C 3370.0,4004.0 3390.0,4004.0 3390.0,3956.0 C 3390.0,3944.0 3402.0,3917.0 3417.0,3895.0 C 3435.0,3868.0 3448.0,3832.0 3455.0,3785.0 C 3468.0,3692.0 3485.0,3683.0 3593.0,3707.0 L 3668.0,3723.0 L 3698.0,3698.0 C 3722.0,3678.0 3743.0,3672.0 3805.0,3667.0 C 3851.0,3663.0 3899.0,3665.0 3926.0,3671.0 C 3967.0,3682.0 3973.0,3681.0 3994.0,3661.0 C 4006.0,3650.0 4026.0,3640.0 4038.0,3640.0 C 4053.0,3640.0 4065.0,3629.0 4077.0,3603.0 C 4098.0,3559.0 4147.0,3530.0 4201.0,3530.0 C 4231.0,3530.0 4240.0,3536.0 4261.0,3567.0 C 4274.0,3588.0 4299.0,3612.0 4317.0,3620.0 C 4347.0,3634.0 4348.0,3636.0 4335.0,3660.0 C 4316.0,3693.0 4317.0,3697.0 4339.0,3719.0 C 4353.0,3733.0 4379.0,3740.0 4432.0,3745.0 C 4515.0,3753.0 4592.0,3735.0 4691.0,3684.0 C 4732.0,3664.0 4843.0,3620.0 4855.0,3620.0 C 4856.0,3620.0 4877.0,3649.0 4901.0,3685.0 C 4935.0,3734.0 4951.0,3750.0 4969.0,3750.0 C 4985.0,3750.0 5016.0,3772.0 5061.0,3815.0 C 5098.0,3851.0 5133.0,3880.0 5139.0,3880.0 C 5145.0,3880.0 5156.0,3868.0 5164.0,3853.0 C 5174.0,3833.0 5197.0,3817.0 5240.0,3800.0 C 5283.0,3783.0 5306.0,3767.0 5313.0,3750.0 C 5320.0,3736.0 5329.0,3722.0 5333.0,3719.0 C 5338.0,3715.0 5406.0,3709.0 5484.0,3705.0 C 5669.0,3696.0 5687.0,3692.0 5757.0,3634.0 C 5824.0,3579.0 5824.0,3578.0 5837.0,3409.0 L 5843.0,3323.0 L 5900.0,3292.0 C 5945.0,3267.0 5970.0,3260.0 6012.0,3260.0 C 6059.0,3260.0 6070.0,3256.0 6095.0,3230.0 C 6118.0,3206.0 6132.0,3200.0 6167.0,3200.0 C 6206.0,3200.0 6212.0,3197.0 6227.0,3166.0 C 6239.0,3140.0 6251.0,3130.0 6276.0,3125.0 C 6300.0,3121.0 6310.0,3114.0 6310.0,3101.0 C 6310.0,3091.0 6322.0,3075.0 6336.0,3065.0 C 6358.0,3051.0 6363.0,3050.0 6373.0,3063.0 C 6386.0,3078.0 6494.0,3092.0 6530.0,3083.0 C 6546.0,3079.0 6550.0,3069.0 6550.0,3040.0 C 6550.0,3018.0 6543.0,2995.0 6534.0,2986.0 C 6520.0,2971.0 6521.0,2969.0 6551.0,2956.0 C 6593.0,2938.0 6696.0,2946.0 6730.0,2970.0 C 6744.0,2980.0 6796.0,3007.0 6845.0,3029.0 C 6902.0,3056.0 6944.0,3083.0 6961.0,3104.0 C 6977.0,3123.0 7005.0,3141.0 7030.0,3149.0 C 7069.0,3161.0 7072.0,3160.0 7091.0,3136.0 C 7106.0,3116.0 7121.0,3110.0 7149.0,3110.0 C 7179.0,3110.0 7189.0,3105.0 7203.0,3081.0 C 7212.0,3065.0 7220.0,3044.0 7220.0,3035.0 C 7220.0,3025.0 7229.0,2978.0 7241.0,2929.0 C 7259.0,2850.0 7264.0,2840.0 7284.0,2840.0 C 7296.0,2840.0 7316.0,2833.0 7328.0,2824.0 C 7341.0,2815.0 7362.0,2810.0 7376.0,2813.0 C 7396.0,2816.0 7400.0,2813.0 7400.0,2794.0 C 7400.0,2760.0 7426.0,2764.0 7445.0,2800.0 C 7453.0,2816.0 7474.0,2837.0 7490.0,2845.0 C 7507.0,2854.0 7520.0,2869.0 7520.0,2879.0 C 7520.0,2893.0 7534.0,2904.0 7565.0,2916.0 C 7607.0,2932.0 7611.0,2932.0 7629.0,2916.0 C 7639.0,2907.0 7665.0,2896.0 7686.0,2893.0 C 7708.0,2890.0 7733.0,2881.0 7742.0,2872.0 C 7756.0,2861.0 7771.0,2859.0 7812.0,2865.0 C 7923.0,2881.0 8055.0,2869.0 8083.0,2841.0 C 8089.0,2835.0 8112.0,2830.0 8135.0,2830.0 C 8157.0,2830.0 8184.0,2823.0 8194.0,2815.0 C 8205.0,2807.0 8225.0,2800.0 8238.0,2800.0 C 8252.0,2800.0 8286.0,2780.0 8321.0,2751.0 C 8387.0,2696.0 8433.0,2683.0 8522.0,2693.0 C 8600.0,2703.0 8714.0,2762.0 8746.0,2809.0 C 8760.0,2831.0 8784.0,2853.0 8799.0,2860.0 C 8815.0,2866.0 8837.0,2884.0 8849.0,2901.0 C 8861.0,2917.0 8875.0,2930.0 8879.0,2930.0 C 8884.0,2930.0 8898.0,2901.0 8910.0,2865.0 C 8940.0,2776.0 8966.0,2747.0 9036.0,2727.0 C 9085.0,2713.0 9095.0,2713.0 9104.0,2725.0 C 9113.0,2736.0 9123.0,2737.0 9160.0,2727.0 C 9185.0,2720.0 9216.0,2707.0 9230.0,2697.0 C 9254.0,2680.0 9256.0,2680.0 9270.0,2699.0 C 9278.0,2709.0 9292.0,2731.0 9301.0,2747.0 C 9315.0,2773.0 9325.0,2778.0 9392.0,2790.0 C 9463.0,2802.0 9472.0,2801.0 9534.0,2780.0 L 9600.0,2758.0 L 9629.0,2782.0 C 9646.0,2795.0 9659.0,2813.0 9659.0,2823.0 C 9660.0,2844.0 9693.0,2846.0 9710.0,2825.0 C 9717.0,2817.0 9737.0,2810.0 9755.0,2810.0 C 9784.0,2810.0 9788.0,2814.0 9794.0,2845.0 C 9801.0,2879.0 9801.0,2879.0 9845.0,2873.0 C 9875.0,2869.0 9895.0,2872.0 9905.0,2880.0 C 9918.0,2891.0 9922.0,2888.0 9930.0,2863.0 C 9938.0,2842.0 9959.0,2823.0 10005.0,2797.0 C 10040.0,2777.0 10071.0,2760.0 10073.0,2760.0 C 10076.0,2760.0 10096.0,2791.0 10119.0,2828.0 C 10146.0,2873.0 10160.0,2908.0 10160.0,2931.0 C 10160.0,2996.0 10181.0,3083.0 10212.0,3144.0 C 10242.0,3203.0 10242.0,3206.0 10235.0,3304.0 C 10228.0,3404.0 10227.0,3406.0 10179.0,3478.0 C 10128.0,3555.0 10127.0,3558.0 10130.0,3602.0 C 10131.0,3630.0 10097.0,3662.0 10018.0,3704.0 C 9982.0,3723.0 9981.0,3726.0 9969.0,3809.0 C 9955.0,3907.0 9969.0,4041.0 9996.0,4071.0 C 10011.0,4088.0 10011.0,4092.0 9991.0,4123.0 C 9974.0,4151.0 9970.0,4173.0 9970.0,4243.0 C 9970.0,4323.0 9972.0,4332.0 10005.0,4387.0 C 10024.0,4419.0 10051.0,4479.0 10065.0,4520.0 C 10086.0,4582.0 10090.0,4606.0 10084.0,4656.0 C 10079.0,4705.0 10081.0,4723.0 10095.0,4744.0 C 10119.0,4781.0 10111.0,4850.0 10076.0,4890.0 C 10062.0,4907.0 10047.0,4933.0 10044.0,4946.0 L 10038.0,4971.0 L 10014.0,4949.0 C 10001.0,4937.0 9990.0,4918.0 9990.0,4908.0 C 9990.0,4884.0 9964.0,4885.0 9913.0,4912.0 C 9875.0,4932.0 9869.0,4933.0 9844.0,4920.0 C 9829.0,4912.0 9805.0,4885.0 9791.0,4862.0 C 9750.0,4793.0 9747.0,4790.0 9723.0,4796.0 C 9706.0,4801.0 9700.0,4810.0 9700.0,4830.0 C 9700.0,4855.0 9695.0,4859.0 9662.0,4865.0 C 9640.0,4868.0 9608.0,4866.0 9585.0,4858.0 C 9553.0,4848.0 9541.0,4836.0 9524.0,4801.0 C 9489.0,4729.0 9427.0,4713.0 9362.0,4759.0 C 9321.0,4788.0 9291.0,4785.0 9240.0,4749.0 C 9203.0,4722.0 9191.0,4718.0 9152.0,4723.0 C 9115.0,4727.0 9099.0,4723.0 9071.0,4704.0 C 9041.0,4684.0 9023.0,4680.0 8954.0,4680.0 C 8874.0,4680.0 8871.0,4681.0 8807.0,4725.0 C 8674.0,4816.0 8645.0,4830.0 8588.0,4828.0 C 8552.0,4826.0 8518.0,4833.0 8485.0,4848.0 C 8458.0,4859.0 8401.0,4880.0 8360.0,4892.0 C 8290.0,4913.0 8284.0,4918.0 8265.0,4956.0 C 8238.0,5011.0 8221.0,5030.0 8199.0,5030.0 C 8186.0,5030.0 8180.0,5023.0 8180.0,5007.0 C 8180.0,4962.0 8139.0,4947.0 8090.0,4974.0 C 8037.0,5004.0 8006.0,4949.0 8020.0,4848.0 C 8034.0,4752.0 8007.0,4728.0 7875.0,4719.0 L 7785.0,4713.0 L 7731.0,4754.0 C 7672.0,4798.0 7666.0,4810.0 7656.0,4891.0 C 7652.0,4922.0 7643.0,4956.0 7636.0,4965.0 C 7616.0,4992.0 7566.0,4976.0 7530.0,4930.0 C 7501.0,4893.0 7500.0,4889.0 7500.0,4791.0 C 7500.0,4697.0 7498.0,4687.0 7476.0,4665.0 C 7455.0,4644.0 7448.0,4643.0 7410.0,4651.0 C 7362.0,4662.0 7299.0,4692.0 7283.0,4712.0 C 7278.0,4719.0 7270.0,4734.0 7267.0,4745.0 C 7256.0,4787.0 7184.0,4937.0 7165.0,4962.0 C 7154.0,4975.0 7133.0,4993.0 7120.0,5000.0 C 7087.0,5017.0 7041.0,5071.0 7040.0,5092.0 C 7040.0,5102.0 7031.0,5134.0 7020.0,5164.0 C 7001.0,5215.0 6998.0,5218.0 6973.0,5211.0 C 6953.0,5206.0 6944.0,5195.0 6937.0,5169.0 C 6932.0,5150.0 6925.0,5131.0 6921.0,5127.0 C 6909.0,5115.0 6821.0,5138.0 6792.0,5160.0 C 6754.0,5191.0 6688.0,5186.0 6615.0,5149.0 L 6555.0,5118.0 L 6420.0,5124.0 C 6299.0,5129.0 6282.0,5133.0 6248.0,5155.0 C 6174.0,5204.0 6168.0,5231.0 6209.0,5340.0 C 6250.0,5450.0 6227.0,5536.0 6152.0,5558.0 C 6075.0,5581.0 6038.0,5565.0 6019.0,5499.0 C 6003.0,5448.0 5982.0,5437.0 5900.0,5437.0 C 5817.0,5437.0 5791.0,5450.0 5687.0,5547.0 C 5594.0,5632.0 5568.0,5646.0 5489.0,5655.0 C 5440.0,5660.0 5426.0,5667.0 5377.0,5710.0 C 5320.0,5762.0 5285.0,5780.0 5245.0,5780.0 C 5207.0,5780.0 5170.0,5819.0 5164.0,5865.0 C 5154.0,5946.0 5126.0,6013.0 5097.0,6029.0 C 5078.0,6040.0 5068.0,6056.0 5064.0,6081.0 C 5060.0,6107.0 5051.0,6121.0 5033.0,6129.0 C 5007.0,6141.0 5006.0,6143.0 5026.0,6238.0 C 5032.0,6267.0 5030.0,6271.0 4999.0,6284.0 C 4980.0,6292.0 4947.0,6317.0 4925.0,6339.0 C 4904.0,6362.0 4882.0,6380.0 4878.0,6380.0 C 4873.0,6380.0 4860.0,6369.0 4848.0,6355.0 C 4821.0,6324.0 4807.0,6324.0 4753.0,6356.0 C 4705.0,6384.0 4685.0,6382.0 4635.0,6346.0 C 4619.0,6334.0 4593.0,6318.0 4578.0,6311.0 C 4562.0,6303.0 4550.0,6294.0 4550.0,6291.0 C 4548.0,6268.0 4495.0,6226.0 4449.0,6211.0 C 4403.0,6196.0 4394.0,6188.0 4386.0,6162.0 C 4381.0,6142.0 4371.0,6130.0 4360.0,6130.0 C 4351.0,6130.0 4305.0,6157.0 4259.0,6190.0 C 4213.0,6222.0 4167.0,6255.0 4157.0,6262.0 C 4146.0,6269.0 4133.0,6301.0 4125.0,6335.0 C 4112.0,6391.0 4105.0,6401.0 4030.0,6473.0 C 3985.0,6515.0 3940.0,6550.0 3930.0,6550.0 C 3894.0,6550.0 3880.0,6562.0 3880.0,6591.0 C 3880.0,6614.0 3871.0,6626.0 3839.0,6647.0 C 3805.0,6669.0 3795.0,6672.0 3779.0,6662.0 C 3765.0,6653.0 3754.0,6653.0 3736.0,6661.0 C 3717.0,6670.0 3707.0,6669.0 3689.0,6656.0 C 3654.0,6632.0 3623.0,6636.0 3607.0,6666.0 C 3598.0,6684.0 3569.0,6703.0 3514.0,6726.0 C 3447.0,6756.0 3425.0,6761.0 3368.0,6759.0 C 3312.0,6757.0 3295.0,6761.0 3256.0,6784.0 C 3200.0,6817.0 3194.0,6826.0 3220.0,6840.0 C 3231.0,6846.0 3240.0,6860.0 3240.0,6871.0 C 3240.0,6887.0 3221.0,6900.0 3154.0,6931.0 C 3107.0,6953.0 3066.0,6979.0 3063.0,6988.0 C 3040.0,7050.0 2981.0,7090.0 2913.0,7090.0 C 2884.0,7090.0 2860.0,7094.0 2860.0,7099.0 C 2860.0,7118.0 2793.0,7148.0 2735.0,7155.0 C 2672.0,7162.0 2563.0,7195.0 2543.0,7214.0 C 2534.0,7222.0 2534.0,7235.0 2543.0,7268.0 L 2554.0,7310.0 L 2460.0,7405.0 L 2365.0,7500.0 L 2275.0,7499.0 C 2200.0,7497.0 2170.0,7502.0 2100.0,7525.0 C 1998.0,7559.0 1821.0,7569.0 1760.0,7545.0" fill="pink"/>
</svg>

<?xml version="1.0" standalone="no"?>
<!DOCTYPE svg PUBLIC "-//W3C//DTD SVG 20010904//EN"
 "http://www.w3.org/TR/2001/REC-SVG-20010904/DTD/svg10.dtd">
<svg version="1.0" xmlns="http://www.w3.org/2000/svg"
 width="1024.000000pt" height="1024.000000pt" viewBox="0 0 1024.000000 1024.000000"
 preserveAspectRatio="xMidYMid meet">
<metadata>
Created by potrace 1.10, written by Peter Selinger 2001-2011
</metadata>
<g transform="translate(0.000000,1024.000000) scale(0.100000,-0.100000)"
fill="#000000" stroke="none">
<path d="M1760 7545 c-19 -7 -58 -14 -87 -14 -49 -1 -54 -3 -78 -38 -21 -31
-25 -49 -25 -106 0 -62 -3 -72 -32 -108 -22 -28 -39 -39 -58 -39 -15 0 -35 -9
-44 -19 -15 -16 -16 -25 -6 -61 10 -38 9 -45 -8 -62 -18 -19 -21 -19 -50 -4
-17 9 -54 41 -83 71 -47 50 -217 185 -233 185 -3 0 -6 -12 -6 -27 0 -37 -10
-50 -53 -76 -20 -12 -52 -44 -71 -72 -19 -27 -55 -62 -78 -76 -36 -21 -44 -31
-46 -60 -2 -20 -15 -46 -31 -64 -15 -16 -32 -42 -39 -57 -6 -15 -29 -38 -50
-52 -27 -17 -54 -50 -87 -106 -50 -86 -94 -120 -153 -120 -24 0 -32 -8 -54
-54 l-27 -54 28 -37 28 -38 -24 -43 c-13 -24 -39 -52 -58 -64 -28 -17 -34 -28
-40 -71 -6 -45 -10 -50 -36 -56 -22 -4 -29 -11 -29 -29 0 -14 -10 -30 -25 -40
-28 -19 -32 -41 -10 -70 8 -10 15 -31 15 -46 0 -15 9 -42 20 -60 12 -21 20
-51 20 -80 0 -26 4 -58 10 -72 12 -33 -2 -41 -40 -21 -16 8 -30 13 -30 10 0
-4 16 -27 35 -52 19 -25 35 -49 35 -54 0 -4 -20 -24 -44 -44 -30 -24 -47 -47
-51 -68 -17 -85 -26 -104 -49 -115 -14 -6 -45 -37 -71 -69 -51 -66 -58 -103
-24 -139 18 -19 29 -22 63 -18 36 5 44 2 70 -25 21 -21 39 -31 60 -31 24 0 35
-7 47 -29 16 -28 127 -111 148 -111 13 0 115 -64 154 -97 16 -12 35 -23 43
-23 13 0 13 27 0 124 0 5 19 16 45 24 44 14 46 14 100 -18 29 -18 65 -45 79
-60 14 -14 45 -34 70 -44 25 -10 66 -31 92 -48 39 -25 56 -29 99 -27 46 3 54
0 74 -25 21 -26 24 -27 72 -18 63 11 103 -6 103 -43 0 -14 5 -25 12 -25 6 0
45 -17 86 -37 63 -31 77 -42 92 -77 10 -23 45 -84 78 -136 60 -97 85 -116 117
-90 10 9 26 7 66 -7 40 -14 55 -25 65 -48 10 -24 34 -41 126 -87 62 -31 135
-64 162 -73 34 -12 54 -27 67 -50 13 -21 32 -36 58 -44 21 -6 42 -18 45 -26 3
-9 18 -15 35 -15 24 0 36 9 62 45 l32 45 77 0 c69 0 79 -3 100 -25 18 -20 33
-25 70 -25 40 0 51 -5 80 -35 19 -20 44 -35 57 -35 12 0 73 -33 134 -73 l111
-74 145 44 c153 47 173 47 173 -1 0 -12 12 -39 27 -61 18 -27 31 -63 38 -110
13 -93 30 -102 138 -78 l75 16 30 -25 c24 -20 45 -26 107 -31 46 -4 94 -2 121
4 41 11 47 10 68 -10 12 -11 32 -21 44 -21 15 0 27 -11 39 -37 21 -44 70 -73
124 -73 30 0 39 6 60 37 13 21 38 45 56 53 30 14 31 16 18 40 -19 33 -18 37 4
59 14 14 40 21 93 26 83 8 160 -10 259 -61 41 -20 152 -64 164 -64 1 0 22 29
46 65 34 49 50 65 68 65 16 0 47 22 92 65 37 36 72 65 78 65 6 0 17 -12 25
-27 10 -20 33 -36 76 -53 43 -17 66 -33 73 -50 7 -14 16 -28 20 -31 5 -4 73
-10 151 -14 185 -9 203 -13 273 -71 67 -55 67 -56 80 -225 l6 -86 57 -31 c45
-25 70 -32 112 -32 47 0 58 -4 83 -30 23 -24 37 -30 72 -30 39 0 45 -3 60 -34
12 -26 24 -36 49 -41 24 -4 34 -11 34 -24 0 -10 12 -26 26 -36 22 -14 27 -15
37 -2 13 15 121 29 157 20 16 -4 20 -14 20 -43 0 -22 -7 -45 -16 -54 -14 -15
-13 -17 17 -30 42 -18 145 -10 179 14 14 10 66 37 115 59 57 27 99 54 116 75
16 19 44 37 69 45 39 12 42 11 61 -13 15 -20 30 -26 58 -26 30 0 40 -5 54 -29
9 -16 17 -37 17 -46 0 -10 9 -57 21 -106 18 -79 23 -89 43 -89 12 0 32 -7 44
-16 13 -9 34 -14 48 -11 20 3 24 0 24 -19 0 -34 26 -30 45 6 8 16 29 37 45 45
17 9 30 24 30 34 0 14 14 25 45 37 42 16 46 16 64 0 10 -9 36 -20 57 -23 22
-3 47 -12 56 -21 14 -11 29 -13 70 -7 111 16 243 4 271 -24 6 -6 29 -11 52
-11 22 0 49 -7 59 -15 11 -8 31 -15 44 -15 14 0 48 -20 83 -49 66 -55 112 -68
201 -58 78 10 192 69 224 116 14 22 38 44 53 51 16 6 38 24 50 41 12 16 26 29
30 29 5 0 19 -29 31 -65 30 -89 56 -118 126 -138 49 -14 59 -14 68 -2 9 11 19
12 56 2 25 -7 56 -20 70 -30 24 -17 26 -17 40 2 8 10 22 32 31 48 14 26 24 31
91 43 71 12 80 11 142 -10 l66 -22 29 24 c17 13 30 31 30 41 1 21 34 23 51 2
7 -8 27 -15 45 -15 29 0 33 4 39 35 7 34 7 34 51 28 30 -4 50 -1 60 7 13 11
17 8 25 -17 8 -21 29 -40 75 -66 35 -20 66 -37 68 -37 3 0 23 31 46 68 27 45
41 80 41 103 0 65 21 152 52 213 30 59 30 62 23 160 -7 100 -8 102 -56 174
-51 77 -52 80 -49 124 1 28 -33 60 -112 102 -36 19 -37 22 -49 105 -14 98 0
232 27 262 15 17 15 21 -5 52 -17 28 -21 50 -21 120 0 80 2 89 35 144 19 32
46 92 60 133 21 62 25 86 19 136 -5 49 -3 67 11 88 24 37 16 106 -19 146 -14
17 -29 43 -32 56 l-6 25 -24 -22 c-13 -12 -24 -31 -24 -41 0 -24 -26 -23 -77
4 -38 20 -44 21 -69 8 -15 -8 -39 -35 -53 -58 -41 -69 -44 -72 -68 -66 -17 5
-23 14 -23 34 0 25 -5 29 -38 35 -22 3 -54 1 -77 -7 -32 -10 -44 -22 -61 -57
-35 -72 -97 -88 -162 -42 -41 29 -71 26 -122 -10 -37 -27 -49 -31 -88 -26 -37
4 -53 0 -81 -19 -30 -20 -48 -24 -117 -24 -80 0 -83 1 -147 45 -133 91 -162
105 -219 103 -36 -2 -70 5 -103 20 -27 11 -84 32 -125 44 -70 21 -76 26 -95
64 -27 55 -44 74 -66 74 -13 0 -19 -7 -19 -23 0 -45 -41 -60 -90 -33 -53 30
-84 -25 -70 -126 14 -96 -13 -120 -145 -129 l-90 -6 -54 41 c-59 44 -65 56
-75 137 -4 31 -13 65 -20 74 -20 27 -70 11 -106 -35 -29 -37 -30 -41 -30 -139
0 -94 -2 -104 -24 -126 -21 -21 -28 -22 -66 -14 -48 11 -111 41 -127 61 -5 7
-13 22 -16 33 -11 42 -83 192 -102 217 -11 13 -32 31 -45 38 -33 17 -79 71
-80 92 0 10 -9 42 -20 72 -19 51 -22 54 -47 47 -20 -5 -29 -16 -36 -42 -5 -19
-12 -38 -16 -42 -12 -12 -100 11 -129 33 -38 31 -104 26 -177 -11 l-60 -31
-135 6 c-121 5 -138 9 -172 31 -74 49 -80 76 -39 185 41 110 18 196 -57 218
-77 23 -114 7 -133 -59 -16 -51 -37 -62 -119 -62 -83 0 -109 13 -213 110 -93
85 -119 99 -198 108 -49 5 -63 12 -112 55 -57 52 -92 70 -132 70 -38 0 -75 39
-81 85 -10 81 -38 148 -67 164 -19 11 -29 27 -33 52 -4 26 -13 40 -31 48 -26
12 -27 14 -7 109 6 29 4 33 -27 46 -19 8 -52 33 -74 55 -21 23 -43 41 -47 41
-5 0 -18 -11 -30 -25 -27 -31 -41 -31 -95 1 -48 28 -68 26 -118 -10 -16 -12
-42 -28 -57 -35 -16 -8 -28 -17 -28 -20 -2 -23 -55 -65 -101 -80 -46 -15 -55
-23 -63 -49 -5 -20 -15 -32 -26 -32 -9 0 -55 27 -101 60 -46 32 -92 65 -102
72 -11 7 -24 39 -32 73 -13 56 -20 66 -95 138 -45 42 -90 77 -100 77 -36 0
-50 12 -50 41 0 23 -9 35 -41 56 -34 22 -44 25 -60 15 -14 -9 -25 -9 -43 -1
-19 9 -29 8 -47 -5 -35 -24 -66 -20 -82 10 -9 18 -38 37 -93 60 -67 30 -89 35
-146 33 -56 -2 -73 2 -112 25 -56 33 -62 42 -36 56 11 6 20 20 20 31 0 16 -19
29 -86 60 -47 22 -88 48 -91 57 -23 62 -82 102 -150 102 -29 0 -53 4 -53 9 0
19 -67 49 -125 56 -63 7 -172 40 -192 59 -9 8 -9 21 0 54 l11 42 -94 95 -95
95 -90 -1 c-75 -2 -105 3 -175 26 -102 34 -279 44 -340 20z"/>
</g>
</svg>
